src/assets/weather/rain.svg

<svg xmlns="http://www.w3.org/2000/svg" xmlns:xlink="http://www.w3.org/1999/xlink" width="500" zoomAndPan="magnify" viewBox="0 0 375 374.999991" height="500" preserveAspectRatio="xMidYMid meet" version="1.0"><defs><clipPath id="dc7986268c"><path d="M 83 38 L 365.648438 38 L 365.648438 202 L 83 202 Z M 83 38 " clip-rule="nonzero"/></clipPath><clipPath id="b81404290c"><path d="M 15.398438 62 L 298 62 L 298 226 L 15.398438 226 Z M 15.398438 62 " clip-rule="nonzero"/></clipPath></defs><g clip-path="url(#dc7986268c)"><path fill="#86a3bf" d="M 187.359375 38.511719 C 185.304688 38.511719 183.257812 38.613281 181.210938 38.816406 C 179.167969 39.015625 177.136719 39.316406 175.121094 39.71875 C 173.105469 40.121094 171.113281 40.617188 169.148438 41.214844 C 167.183594 41.8125 165.25 42.503906 163.351562 43.289062 C 161.453125 44.074219 159.597656 44.953125 157.785156 45.917969 C 155.972656 46.886719 154.210938 47.941406 152.503906 49.085938 C 150.796875 50.226562 149.148438 51.449219 147.558594 52.75 C 145.96875 54.054688 144.449219 55.433594 142.996094 56.882812 C 141.542969 58.335938 140.164062 59.855469 138.863281 61.445312 C 137.558594 63.03125 136.335938 64.679688 135.195312 66.386719 C 134.050781 68.097656 132.996094 69.855469 132.027344 71.667969 C 131.058594 73.480469 130.183594 75.332031 129.394531 77.230469 C 128.609375 79.128906 127.917969 81.0625 127.320312 83.027344 C 126.726562 84.992188 126.226562 86.984375 125.824219 88.996094 C 125.425781 91.011719 125.125 93.042969 124.921875 95.085938 C 124.722656 97.128906 124.621094 99.179688 124.621094 101.234375 C 124.632812 103.554688 124.777344 105.871094 125.046875 108.175781 C 101.386719 112.421875 83.632812 131.527344 83.632812 154.59375 C 83.632812 180.800781 106.546875 201.898438 135.007812 201.898438 L 318.324219 201.898438 C 344.539062 201.898438 365.644531 182.289062 365.644531 157.929688 C 365.644531 133.722656 344.800781 114.214844 318.8125 113.972656 C 318.609375 112.347656 318.328125 110.738281 317.976562 109.140625 C 317.628906 107.542969 317.203125 105.964844 316.710938 104.40625 C 316.214844 102.847656 315.652344 101.3125 315.019531 99.804688 C 314.386719 98.292969 313.6875 96.816406 312.921875 95.371094 C 312.15625 93.925781 311.328125 92.519531 310.433594 91.148438 C 309.539062 89.777344 308.585938 88.449219 307.574219 87.164062 C 306.558594 85.882812 305.492188 84.644531 304.363281 83.457031 C 303.238281 82.269531 302.0625 81.132812 300.835938 80.050781 C 299.609375 78.972656 298.335938 77.945312 297.015625 76.980469 C 295.695312 76.015625 294.332031 75.109375 292.929688 74.265625 C 291.527344 73.421875 290.089844 72.644531 288.617188 71.929688 C 287.148438 71.214844 285.644531 70.570312 284.113281 69.992188 C 282.582031 69.414062 281.03125 68.90625 279.453125 68.46875 C 277.875 68.03125 276.28125 67.664062 274.671875 67.371094 C 273.0625 67.078125 271.445312 66.855469 269.8125 66.707031 C 268.183594 66.558594 266.550781 66.488281 264.914062 66.488281 C 257.101562 66.5 249.632812 68.121094 242.519531 71.351562 C 241.179688 68.878906 239.679688 66.507812 238.023438 64.238281 C 236.363281 61.96875 234.558594 59.820312 232.613281 57.792969 C 230.664062 55.765625 228.589844 53.875 226.386719 52.125 C 224.183594 50.378906 221.875 48.785156 219.460938 47.34375 C 217.042969 45.90625 214.542969 44.636719 211.953125 43.535156 C 209.367188 42.433594 206.71875 41.507812 204.007812 40.761719 C 201.296875 40.015625 198.546875 39.453125 195.757812 39.078125 C 192.972656 38.703125 190.171875 38.511719 187.359375 38.511719 Z M 187.359375 38.511719 " fill-opacity="1" fill-rule="nonzero"/></g><g clip-path="url(#b81404290c)"><path fill="#c6e0f7" d="M 119.152344 62.117188 C 117.097656 62.117188 115.046875 62.214844 113.003906 62.417969 C 110.957031 62.621094 108.929688 62.921875 106.914062 63.320312 C 104.898438 63.722656 102.90625 64.222656 100.941406 64.816406 C 98.972656 65.414062 97.042969 66.105469 95.144531 66.890625 C 93.246094 67.675781 91.390625 68.554688 89.578125 69.523438 C 87.765625 70.492188 86.003906 71.546875 84.296875 72.6875 C 82.589844 73.828125 80.941406 75.050781 79.351562 76.351562 C 77.761719 77.65625 76.242188 79.035156 74.789062 80.488281 C 73.335938 81.9375 71.957031 83.460938 70.652344 85.046875 C 69.351562 86.636719 68.128906 88.28125 66.988281 89.992188 C 65.84375 91.699219 64.789062 93.457031 63.820312 95.269531 C 62.851562 97.082031 61.976562 98.9375 61.1875 100.835938 C 60.402344 102.730469 59.710938 104.664062 59.113281 106.628906 C 58.519531 108.59375 58.019531 110.585938 57.617188 112.601562 C 57.21875 114.613281 56.917969 116.644531 56.714844 118.6875 C 56.515625 120.730469 56.414062 122.78125 56.414062 124.835938 C 56.425781 127.15625 56.570312 129.472656 56.839844 131.777344 C 33.179688 136.027344 15.425781 155.128906 15.425781 178.199219 C 15.425781 204.402344 38.339844 225.5 66.800781 225.5 L 250.117188 225.5 C 276.332031 225.5 297.4375 205.890625 297.4375 181.53125 C 297.4375 157.324219 276.59375 137.816406 250.605469 137.574219 C 250.402344 135.953125 250.121094 134.339844 249.769531 132.742188 C 249.417969 131.144531 248.996094 129.566406 248.503906 128.007812 C 248.007812 126.449219 247.445312 124.914062 246.8125 123.40625 C 246.179688 121.898438 245.480469 120.417969 244.714844 118.972656 C 243.949219 117.527344 243.117188 116.121094 242.226562 114.75 C 241.332031 113.378906 240.378906 112.050781 239.367188 110.769531 C 238.351562 109.484375 237.28125 108.246094 236.15625 107.058594 C 235.03125 105.871094 233.855469 104.738281 232.628906 103.65625 C 231.402344 102.574219 230.125 101.550781 228.808594 100.582031 C 227.488281 99.617188 226.125 98.710938 224.722656 97.867188 C 223.320312 97.023438 221.882812 96.246094 220.410156 95.53125 C 218.9375 94.816406 217.4375 94.171875 215.90625 93.59375 C 214.375 93.015625 212.820312 92.507812 211.246094 92.070312 C 209.667969 91.632812 208.074219 91.265625 206.464844 90.972656 C 204.855469 90.679688 203.234375 90.457031 201.605469 90.3125 C 199.976562 90.164062 198.34375 90.089844 196.707031 90.089844 C 188.890625 90.101562 181.425781 91.722656 174.3125 94.953125 C 172.972656 92.480469 171.472656 90.113281 169.8125 87.839844 C 168.15625 85.570312 166.351562 83.421875 164.402344 81.394531 C 162.457031 79.367188 160.382812 77.476562 158.179688 75.730469 C 155.976562 73.980469 153.667969 72.386719 151.253906 70.949219 C 148.835938 69.507812 146.335938 68.238281 143.746094 67.136719 C 141.160156 66.035156 138.511719 65.109375 135.800781 64.363281 C 133.089844 63.617188 130.339844 63.058594 127.550781 62.679688 C 124.765625 62.304688 121.964844 62.117188 119.152344 62.117188 Z M 119.152344 62.117188 " fill-opacity="1" fill-rule="nonzero"/></g><path fill="#3981bf" d="M 88.871094 195.742188 C 84.105469 201.117188 71.207031 211.882812 67.3125 226.539062 C 67.09375 227.355469 66.957031 228.183594 66.902344 229.023438 C 66.847656 229.867188 66.875 230.703125 66.984375 231.539062 C 67.09375 232.378906 67.285156 233.195312 67.558594 233.992188 C 67.828125 234.792969 68.175781 235.554688 68.597656 236.285156 C 69.019531 237.015625 69.507812 237.699219 70.0625 238.332031 C 70.621094 238.96875 71.234375 239.542969 71.902344 240.054688 C 72.570312 240.570312 73.285156 241.011719 74.042969 241.386719 C 74.796875 241.757812 75.585938 242.054688 76.398438 242.273438 C 77.214844 242.488281 78.042969 242.625 78.886719 242.683594 C 79.726562 242.738281 80.566406 242.710938 81.402344 242.601562 C 82.238281 242.488281 83.054688 242.300781 83.855469 242.027344 C 84.65625 241.757812 85.417969 241.410156 86.148438 240.988281 C 86.878906 240.566406 87.5625 240.078125 88.199219 239.523438 C 88.832031 238.964844 89.40625 238.351562 89.917969 237.683594 C 90.433594 237.015625 90.875 236.300781 91.25 235.546875 C 91.621094 234.789062 91.917969 234.003906 92.136719 233.1875 C 92.164062 233.082031 92.191406 232.976562 92.21875 232.867188 C 96.210938 217.472656 90.300781 202.730469 88.871094 195.742188 Z M 88.871094 195.742188 " fill-opacity="1" fill-rule="nonzero"/><path fill="#3981bf" d="M 147.613281 195.742188 C 142.847656 201.117188 129.949219 211.882812 126.054688 226.539062 C 125.835938 227.355469 125.699219 228.183594 125.644531 229.023438 C 125.589844 229.867188 125.617188 230.703125 125.726562 231.539062 C 125.835938 232.378906 126.027344 233.195312 126.300781 233.992188 C 126.570312 234.792969 126.917969 235.554688 127.339844 236.285156 C 127.761719 237.015625 128.25 237.699219 128.804688 238.332031 C 129.363281 238.96875 129.976562 239.542969 130.644531 240.054688 C 131.3125 240.570312 132.027344 241.011719 132.785156 241.386719 C 133.539062 241.757812 134.328125 242.054688 135.140625 242.273438 C 135.957031 242.492188 136.785156 242.628906 137.625 242.683594 C 138.46875 242.738281 139.308594 242.710938 140.144531 242.601562 C 140.980469 242.488281 141.796875 242.300781 142.597656 242.027344 C 143.394531 241.757812 144.160156 241.410156 144.890625 240.988281 C 145.621094 240.566406 146.304688 240.078125 146.9375 239.523438 C 147.574219 238.964844 148.148438 238.351562 148.660156 237.683594 C 149.175781 237.015625 149.617188 236.300781 149.992188 235.546875 C 150.363281 234.789062 150.660156 234.003906 150.878906 233.1875 C 150.90625 233.082031 150.933594 232.976562 150.960938 232.867188 C 154.949219 217.472656 149.042969 202.730469 147.613281 195.742188 Z M 147.613281 195.742188 " fill-opacity="1" fill-rule="nonzero"/><path fill="#3981bf" d="M 206.449219 197.3125 C 201.683594 202.683594 188.785156 213.453125 184.894531 228.109375 C 184.675781 228.921875 184.539062 229.75 184.484375 230.59375 C 184.425781 231.433594 184.457031 232.273438 184.566406 233.109375 C 184.675781 233.945312 184.867188 234.761719 185.136719 235.5625 C 185.410156 236.359375 185.753906 237.125 186.175781 237.855469 C 186.597656 238.585938 187.085938 239.269531 187.644531 239.902344 C 188.199219 240.535156 188.8125 241.109375 189.484375 241.625 C 190.152344 242.136719 190.863281 242.582031 191.621094 242.953125 C 192.378906 243.328125 193.164062 243.621094 193.980469 243.839844 C 194.792969 244.058594 195.621094 244.195312 196.464844 244.25 C 197.304688 244.304688 198.144531 244.277344 198.980469 244.167969 C 199.820312 244.058594 200.636719 243.867188 201.433594 243.597656 C 202.234375 243.324219 203 242.980469 203.730469 242.558594 C 204.460938 242.136719 205.144531 241.644531 205.777344 241.089844 C 206.410156 240.535156 206.984375 239.921875 207.5 239.253906 C 208.011719 238.582031 208.457031 237.871094 208.828125 237.113281 C 209.203125 236.359375 209.5 235.570312 209.71875 234.757812 C 209.746094 234.652344 209.773438 234.542969 209.796875 234.4375 C 213.789062 219.042969 207.878906 204.296875 206.449219 197.3125 Z M 206.449219 197.3125 " fill-opacity="1" fill-rule="nonzero"/><path fill="#3981bf" d="M 118.289062 249.21875 C 113.523438 254.59375 100.625 265.359375 96.730469 280.015625 C 96.515625 280.832031 96.378906 281.660156 96.320312 282.5 C 96.265625 283.34375 96.292969 284.183594 96.40625 285.019531 C 96.515625 285.855469 96.707031 286.671875 96.976562 287.46875 C 97.246094 288.269531 97.59375 289.035156 98.015625 289.765625 C 98.4375 290.496094 98.925781 291.175781 99.484375 291.8125 C 100.039062 292.445312 100.652344 293.019531 101.320312 293.53125 C 101.992188 294.046875 102.703125 294.488281 103.460938 294.863281 C 104.21875 295.234375 105.003906 295.53125 105.820312 295.75 C 106.632812 295.96875 107.460938 296.105469 108.304688 296.160156 C 109.144531 296.214844 109.984375 296.1875 110.820312 296.078125 C 111.65625 295.96875 112.476562 295.777344 113.273438 295.503906 C 114.074219 295.234375 114.839844 294.886719 115.570312 294.464844 C 116.300781 294.042969 116.980469 293.554688 117.617188 293 C 118.25 292.441406 118.824219 291.832031 119.339844 291.160156 C 119.851562 290.492188 120.296875 289.78125 120.667969 289.023438 C 121.042969 288.265625 121.335938 287.480469 121.554688 286.667969 C 121.585938 286.558594 121.613281 286.453125 121.636719 286.34375 C 125.628906 270.953125 119.71875 256.207031 118.289062 249.21875 Z M 118.289062 249.21875 " fill-opacity="1" fill-rule="nonzero"/><path fill="#3981bf" d="M 177.03125 249.21875 C 172.265625 254.59375 159.367188 265.359375 155.472656 280.015625 C 155.253906 280.832031 155.117188 281.660156 155.0625 282.5 C 155.007812 283.34375 155.035156 284.183594 155.144531 285.019531 C 155.257812 285.855469 155.445312 286.671875 155.71875 287.46875 C 155.988281 288.269531 156.335938 289.035156 156.757812 289.765625 C 157.179688 290.496094 157.667969 291.175781 158.226562 291.8125 C 158.78125 292.445312 159.394531 293.019531 160.0625 293.53125 C 160.734375 294.046875 161.445312 294.488281 162.203125 294.863281 C 162.960938 295.234375 163.746094 295.53125 164.558594 295.75 C 165.375 295.96875 166.203125 296.105469 167.046875 296.160156 C 167.886719 296.214844 168.726562 296.1875 169.5625 296.078125 C 170.398438 295.96875 171.21875 295.777344 172.015625 295.503906 C 172.816406 295.234375 173.582031 294.886719 174.3125 294.464844 C 175.042969 294.042969 175.722656 293.554688 176.359375 293 C 176.992188 292.441406 177.566406 291.832031 178.082031 291.160156 C 178.59375 290.492188 179.039062 289.78125 179.410156 289.023438 C 179.785156 288.265625 180.078125 287.480469 180.296875 286.667969 C 180.328125 286.558594 180.355469 286.453125 180.378906 286.34375 C 184.371094 270.953125 178.460938 256.207031 177.03125 249.21875 Z M 177.03125 249.21875 " fill-opacity="1" fill-rule="nonzero"/></svg>

<svg xmlns="http://www.w3.org/2000/svg" width="500" height="500" version="1.0" viewBox="0 0 375 375"><defs><clipPath id="a"><path d="M83 38h282.648v164H83Zm0 0"/></clipPath><clipPath id="b"><path d="M15.398 62H298v164H15.398Zm0 0"/></clipPath></defs><g clip-path="url(#a)"><path fill="#86a3bf" d="M187.36 38.512c-2.055 0-4.102.101-6.15.304a62.66 62.66 0 0 0-17.86 4.473 63.458 63.458 0 0 0-5.565 2.629 61.711 61.711 0 0 0-5.281 3.168 63.667 63.667 0 0 0-4.945 3.664 63.546 63.546 0 0 0-4.563 4.133 61.751 61.751 0 0 0-4.133 4.562 61.947 61.947 0 0 0-3.668 4.942 62.321 62.321 0 0 0-3.168 5.281 63.42 63.42 0 0 0-2.632 5.562 63.56 63.56 0 0 0-2.075 5.797 64.085 64.085 0 0 0-1.496 5.97 64.098 64.098 0 0 0-.902 6.089c-.2 2.043-.3 4.094-.3 6.148.01 2.32.155 4.637.425 6.942-23.66 4.246-41.414 23.351-41.414 46.418 0 26.207 22.914 47.304 51.375 47.304h183.316c26.215 0 47.32-19.609 47.32-43.968 0-24.207-20.843-43.715-46.832-43.957a53.139 53.139 0 0 0-.835-4.832 53.498 53.498 0 0 0-1.266-4.735 54.96 54.96 0 0 0-3.79-9.035 53.864 53.864 0 0 0-2.487-4.223 55.199 55.199 0 0 0-2.86-3.984 54.565 54.565 0 0 0-3.21-3.707 54.767 54.767 0 0 0-3.528-3.406 54.488 54.488 0 0 0-7.906-5.785 54.634 54.634 0 0 0-8.817-4.274 54.083 54.083 0 0 0-9.441-2.62 53.945 53.945 0 0 0-9.758-.883c-7.812.011-15.281 1.632-22.394 4.863a62.85 62.85 0 0 0-4.497-7.114 62.92 62.92 0 0 0-11.637-12.113 63.778 63.778 0 0 0-6.925-4.781 62.676 62.676 0 0 0-7.508-3.809 62.72 62.72 0 0 0-24.594-5.023Zm0 0"/></g><g clip-path="url(#b)"><path fill="#c6e0f7" d="M119.152 62.117c-2.054 0-4.105.098-6.148.301a63.913 63.913 0 0 0-6.09.902 63.858 63.858 0 0 0-5.973 1.496 63.143 63.143 0 0 0-5.796 2.075A62.694 62.694 0 0 0 74.79 80.489a62.63 62.63 0 0 0-4.138 4.558 62.93 62.93 0 0 0-3.664 4.945 61.644 61.644 0 0 0-3.168 5.278 63.067 63.067 0 0 0-4.707 11.36 63.857 63.857 0 0 0-1.496 5.972 63.832 63.832 0 0 0-.902 6.085c-.2 2.043-.3 4.094-.3 6.149.01 2.32.155 4.637.425 6.941-23.66 4.25-41.414 23.352-41.414 46.422 0 26.203 22.914 47.301 51.375 47.301h183.316c26.215 0 47.32-19.61 47.32-43.969 0-24.207-20.843-43.715-46.832-43.957a53.374 53.374 0 0 0-.835-4.832 54.88 54.88 0 0 0-1.266-4.734 54.961 54.961 0 0 0-3.79-9.035 54.276 54.276 0 0 0-12.086-15.316 55.465 55.465 0 0 0-3.82-3.075 54.634 54.634 0 0 0-12.902-6.988 54.53 54.53 0 0 0-9.441-2.621 53.573 53.573 0 0 0-4.86-.66 53.949 53.949 0 0 0-4.898-.223c-7.816.012-15.281 1.633-22.394 4.863a62.68 62.68 0 0 0-9.91-13.558 62.693 62.693 0 0 0-20.656-14.258 62.72 62.72 0 0 0-16.196-4.457 62.883 62.883 0 0 0-8.399-.563Zm0 0"/></g><path fill="#3981bf" d="M88.871 195.742c-4.766 5.375-17.664 16.14-21.558 30.797a12.787 12.787 0 0 0-.329 5c.11.84.301 1.656.575 2.453a12.842 12.842 0 0 0 8.84 8.281 12.899 12.899 0 0 0 5.004.328 12.936 12.936 0 0 0 6.796-3.078 12.982 12.982 0 0 0 3.051-3.976c.371-.758.668-1.543.887-2.36l.082-.32c3.992-15.394-1.918-30.137-3.348-37.125ZM147.613 195.742c-4.765 5.375-17.664 16.14-21.558 30.797a12.787 12.787 0 0 0-.328 5c.109.84.3 1.656.574 2.453a12.842 12.842 0 0 0 13.844 8.61 12.936 12.936 0 0 0 4.746-1.614 12.842 12.842 0 0 0 6.07-8.12c3.988-15.395-1.918-30.138-3.348-37.126ZM206.45 197.313c-4.766 5.37-17.665 16.14-21.555 30.796a12.69 12.69 0 0 0-.41 2.485 12.927 12.927 0 0 0 .652 4.969c.273.796.617 1.562 1.039 2.292.422.73.91 1.415 1.469 2.047a12.815 12.815 0 0 0 3.976 3.051c.758.375 1.543.668 2.36.887a12.899 12.899 0 0 0 7.453-.242 12.93 12.93 0 0 0 2.296-1.04 12.994 12.994 0 0 0 3.77-3.305c.512-.671.957-1.382 1.328-2.14.375-.754.672-1.543.89-2.355.028-.106.055-.215.079-.32 3.992-15.395-1.918-30.141-3.348-37.125ZM118.29 249.219c-4.767 5.375-17.665 16.14-21.56 30.797a13.407 13.407 0 0 0-.41 2.484c-.054.844-.027 1.684.086 2.52a12.819 12.819 0 0 0 3.078 6.793 12.888 12.888 0 0 0 3.977 3.05c.758.371 1.543.668 2.36.887a12.899 12.899 0 0 0 5 .328c.835-.11 1.656-.3 2.452-.574.801-.27 1.567-.617 2.297-1.04.73-.421 1.41-.91 2.047-1.464a13.024 13.024 0 0 0 1.723-1.84c.512-.668.957-1.379 1.328-2.137a12.79 12.79 0 0 0 .969-2.68c3.992-15.39-1.918-30.136-3.348-37.124ZM177.031 249.219c-4.765 5.375-17.664 16.14-21.558 30.797a12.929 12.929 0 0 0-.328 5.004c.113.835.3 1.652.574 2.449a12.796 12.796 0 0 0 2.508 4.344 12.888 12.888 0 0 0 6.332 3.938 12.899 12.899 0 0 0 5.004.328c.835-.11 1.656-.302 2.453-.575.8-.27 1.566-.617 2.297-1.04.73-.421 1.41-.91 2.046-1.464a13.024 13.024 0 0 0 1.723-1.84c.512-.668.957-1.379 1.328-2.137a12.79 12.79 0 0 0 .969-2.68c3.992-15.39-1.918-30.136-3.348-37.124Zm0 0"/></svg>
